SVG_Azure_Grouped/Application/Event Hub Cluster.svg

<?xml version="1.0" encoding="UTF-8" standalone="no"?>
<!-- Generated by Microsoft Visio, SVG Export Event Hub Cluster.svg Page-1 -->

<svg
   xmlns:dc="http://purl.org/dc/elements/1.1/"
   xmlns:cc="http://creativecommons.org/ns#"
   xmlns:rdf="http://www.w3.org/1999/02/22-rdf-syntax-ns#"
   xmlns:svg="http://www.w3.org/2000/svg"
   xmlns="http://www.w3.org/2000/svg"
   xmlns:sodipodi="http://sodipodi.sourceforge.net/DTD/sodipodi-0.dtd"
   xmlns:inkscape="http://www.inkscape.org/namespaces/inkscape"
   width="0.78745008in"
   height="0.63003564in"
   viewBox="0 0 56.696314 45.362663"
   xml:space="preserve"
   class="st7"
   version="1.1"
   id="svg105"
   sodipodi:docname="Event Hub Cluster.svg"
   style="font-size:12px;overflow:visible;color-interpolation-filters:sRGB;fill:none;fill-rule:evenodd;stroke-linecap:square;stroke-miterlimit:3"
   inkscape:version="0.92.5 (2060ec1f9f, 2020-04-08)"><metadata
   id="metadata111"><rdf:RDF><cc:Work
       rdf:about=""><dc:format>image/svg+xml</dc:format><dc:type
         rdf:resource="http://purl.org/dc/dcmitype/StillImage" /></cc:Work></rdf:RDF></metadata><defs
   id="defs109" /><sodipodi:namedview
   pagecolor="#ffffff"
   bordercolor="#666666"
   borderopacity="1"
   objecttolerance="10"
   gridtolerance="10"
   guidetolerance="10"
   inkscape:pageopacity="0"
   inkscape:pageshadow="2"
   inkscape:window-width="640"
   inkscape:window-height="480"
   id="namedview107"
   showgrid="false"
   inkscape:zoom="1.5612629"
   inkscape:cx="37.795252"
   inkscape:cy="30.232438"
   inkscape:window-x="0"
   inkscape:window-y="0"
   inkscape:window-maximized="0"
   inkscape:current-layer="svg105" />
	<style
   type="text/css"
   id="style2">
	<![CDATA[
		.st1 {fill:#b3b3b3;stroke:none;stroke-linecap:butt;stroke-width:34}
		.st2 {fill:#b3b3b3;fill-opacity:0.5;stroke:none;stroke-linecap:butt;stroke-width:34}
		.st3 {fill:#76bc2d;stroke:none;stroke-linecap:butt;stroke-width:34}
		.st4 {fill:#5e9624;stroke:none;stroke-linecap:butt;stroke-width:34}
		.st5 {fill:#86d633;stroke:none;stroke-linecap:butt;stroke-width:34}
		.st6 {fill:#949494;stroke:none;stroke-linecap:butt;stroke-width:34}
		.st7 {fill:none;fill-rule:evenodd;font-size:12px;overflow:visible;stroke-linecap:square;stroke-miterlimit:3}
	]]>
	</style>

	<g
   id="g103"
   transform="translate(-34.000237,-33.996717)">
		<title
   id="title4">Page-1</title>
		<g
   id="group14059-1"
   transform="translate(34,-34.0157)">
			<title
   id="title6">Event Hub Cluster.14059</title>
			<g
   id="group14060-2">
				<title
   id="title8"> Icon-analytics-149</title>
				<g
   id="group14061-3"
   transform="translate(27.8632,-18.8078)">
					<title
   id="title10">Sheet.14061</title>
					<g
   id="shape14062-4"
   transform="translate(0,-0.0326525)">
						<title
   id="title12">Sheet.14062</title>
						<path
   d="m 1.07,107 h 2.16 v 5.91 a 0.466608,0.457135 0 0 1 -0.466608,0.45713 L 0.47,113.37 A 0.466608,0.457135 0 0 1 0.003392,112.91287 L 0,107.95 a 0.966546,0.946923 0 0 1 1.06653,-0.94692 z"
   class="st1"
   id="path14"
   inkscape:connector-curvature="0"
   style="fill:#b3b3b3;stroke:none;stroke-width:34;stroke-linecap:butt" />
					</g>
					<g
   id="shape14063-6"
   transform="translate(0,-0.0326525)">
						<title
   id="title17">Sheet.14063</title>
						<path
   d="m 1.07,107 h 2.16 v 5.91 a 0.466608,0.457135 0 0 1 -0.466608,0.45713 L 0.47,113.37 A 0.466608,0.457135 0 0 1 0.003392,112.91287 L 0,107.95 a 0.966546,0.946923 0 0 1 1.06653,-0.94692 z"
   class="st2"
   id="path19"
   inkscape:connector-curvature="0"
   style="fill:#b3b3b3;fill-opacity:0.5;stroke:none;stroke-width:34;stroke-linecap:butt" />
					</g>
					<g
   id="shape14064-8"
   transform="translate(25.6635)">
						<title
   id="title22">Sheet.14064</title>
						<path
   d="m 0,106.97 h 2.17 a 0.966546,0.946923 0 0 1 0.966546,0.94692 L 3.13,112.91 a 0.466608,0.457135 0 0 1 -0.466608,0.45713 L 0.47,113.37 a 0.466608,0.457135 0 0 1 -0.466608,-0.45713 z"
   class="st1"
   id="path24"
   inkscape:connector-curvature="0"
   style="fill:#b3b3b3;stroke:none;stroke-width:34;stroke-linecap:butt" />
					</g>
					<g
   id="shape14065-10"
   transform="translate(25.6635)">
						<title
   id="title27">Sheet.14065</title>
						<path
   d="m 0,106.97 h 2.17 a 0.966546,0.946923 0 0 1 0.966546,0.94692 L 3.13,112.91 a 0.466608,0.457135 0 0 1 -0.466608,0.45713 L 0.47,113.37 a 0.466608,0.457135 0 0 1 -0.466608,-0.45713 z"
   class="st2"
   id="path29"
   inkscape:connector-curvature="0"
   style="fill:#b3b3b3;fill-opacity:0.5;stroke:none;stroke-width:34;stroke-linecap:butt" />
					</g>
					<g
   id="shape14066-12"
   transform="translate(0.133317,-3.49382)">
						<title
   id="title32">Sheet.14066</title>
						<path
   d="m 28.66,111.31 v 2.06 H 0 v -2.06 a 0.966546,0.946923 0 0 1 0.966546,-0.94692 L 27.63,110.37 a 0.966546,0.946923 0 0 1 1.0332,0.94692 z"
   class="st1"
   id="path34"
   inkscape:connector-curvature="0"
   style="fill:#b3b3b3;stroke:none;stroke-width:34;stroke-linecap:butt" />
					</g>
				</g>
				<g
   id="group14067-14"
   transform="translate(27.9632)">
					<title
   id="title38">Sheet.14067</title>
					<g
   id="shape14068-15"
   transform="translate(0,-0.0326525)">
						<title
   id="title40">Sheet.14068</title>
						<path
   d="m 0.37,107 h 2.16 a 0.466608,0.457135 0 0 1 0.466608,0.45713 L 3,113.37 H 0.97 A 0.966546,0.946923 0 0 1 0.003454,112.42308 L 0,107.36 a 0.466608,0.457135 0 0 1 0.366621,-0.35918 z"
   class="st1"
   id="path42"
   inkscape:connector-curvature="0"
   style="fill:#b3b3b3;stroke:none;stroke-width:34;stroke-linecap:butt" />
					</g>
					<g
   id="shape14069-17"
   transform="translate(0,-0.0326525)">
						<title
   id="title45">Sheet.14069</title>
						<path
   d="m 0.37,107 h 2.16 a 0.466608,0.457135 0 0 1 0.466608,0.45713 L 3,113.37 H 0.97 A 0.966546,0.946923 0 0 1 0.003454,112.42308 L 0,107.36 a 0.466608,0.457135 0 0 1 0.366621,-0.35918 z"
   class="st2"
   id="path47"
   inkscape:connector-curvature="0"
   style="fill:#b3b3b3;fill-opacity:0.5;stroke:none;stroke-width:34;stroke-linecap:butt" />
					</g>
					<g
   id="shape14070-19"
   transform="translate(25.5301)">
						<title
   id="title50">Sheet.14070</title>
						<path
   d="m 0.5,106.97 h 2.17 a 0.466608,0.457135 0 0 1 0.466608,0.45713 L 3.13,112.42 a 0.966546,0.946923 0 0 1 -0.966546,0.94692 L 0,113.37 v -6.04 a 0.466608,0.457135 0 0 1 0.499938,-0.35918 z"
   class="st1"
   id="path52"
   inkscape:connector-curvature="0"
   style="fill:#b3b3b3;stroke:none;stroke-width:34;stroke-linecap:butt" />
					</g>
					<g
   id="shape14071-21"
   transform="translate(25.5301)">
						<title
   id="title55">Sheet.14071</title>
						<path
   d="m 0.5,106.97 h 2.17 a 0.466608,0.457135 0 0 1 0.466608,0.45713 L 3.13,112.42 a 0.966546,0.946923 0 0 1 -0.966546,0.94692 L 0,113.37 v -6.04 a 0.466608,0.457135 0 0 1 0.499938,-0.35918 z"
   class="st2"
   id="path57"
   inkscape:connector-curvature="0"
   style="fill:#b3b3b3;fill-opacity:0.5;stroke:none;stroke-width:34;stroke-linecap:butt" />
					</g>
					<g
   id="shape14072-23"
   transform="translate(0.0333292)">
						<title
   id="title60">Sheet.14072</title>
						<path
   d="m 0,112.42 v -2.05 h 28.7 v 2.05 a 0.966546,0.946923 0 0 1 -0.966546,0.94692 L 1.07,113.37 a 0.966546,0.946923 0 0 1 -1.06653,-0.94692 z"
   class="st1"
   id="path62"
   inkscape:connector-curvature="0"
   style="fill:#b3b3b3;stroke:none;stroke-width:34;stroke-linecap:butt" />
					</g>
				</g>
				<g
   id="shape14073-25"
   transform="translate(41.2282,-13.3549)">
					<title
   id="title66">Sheet.14073</title>
					<path
   d="m 4.07,112.95 a 0.433279,0.424483 0 0 1 -0.366621,0.42448 L 0.43,113.37 a 0.39995,0.39183 0 0 1 -0.433279,-0.39183 L 0,110.53 a 0.466608,0.457135 0 0 1 0.366621,-0.42448 L 3.7,110.1 a 0.39995,0.39183 0 0 1 0.433279,0.39183 z"
   class="st3"
   id="path68"
   inkscape:connector-curvature="0"
   style="fill:#76bc2d;stroke:none;stroke-width:34;stroke-linecap:butt" />
				</g>
				<g
   id="shape14074-27"
   transform="translate(41.2282,-8.39169)">
					<title
   id="title71">Sheet.14074</title>
					<path
   d="m 10.03,110.46 a 0.433279,0.424483 0 0 1 -0.366621,0.42448 L 6.33,110.89 A 0.39995,0.39183 0 0 1 5.896721,110.49817 L 5.9,108.08 a 0.366621,0.359178 0 0 1 0.366621,-0.39183 L 9.6,107.69 a 0.366621,0.359178 0 0 1 0.433279,0.35918 z m -5.96,2.49 a 0.39995,0.39183 0 0 1 -0.366621,0.42448 L 0.43,113.37 a 0.39995,0.39183 0 0 1 -0.433279,-0.35918 L 0,110.56 a 0.39995,0.39183 0 0 1 0.433279,-0.42448 L 3.77,110.14 a 0.366621,0.359178 0 0 1 0.433279,0.35918 L 4.2,112.95 Z"
   class="st4"
   id="path73"
   inkscape:connector-curvature="0"
   style="fill:#5e9624;stroke:none;stroke-width:34;stroke-linecap:butt" />
				</g>
				<g
   id="shape14075-29"
   transform="translate(34.9956,-15.6895)">
					<title
   id="title76">Sheet.14075</title>
					<path
   d="m 4.33,112.86 a 0.366621,0.359178 0 0 1 -0.366621,0.39183 L 0.63,113.26 a 0.37449,0.366887 0 0 1 -0.633254,-0.39183 L 0,110.35 a 0.366621,0.359178 0 0 1 0.366621,-0.39183 L 3.7,109.96 c 0.33,0 0.5,0.16 0.5,0.39 z"
   class="st5"
   id="path78"
   inkscape:connector-curvature="0"
   style="fill:#86d633;stroke:none;stroke-width:34;stroke-linecap:butt" />
				</g>
				<g
   id="shape14076-31"
   transform="translate(35.2289,-10.8733)">
					<title
   id="title81">Sheet.14076</title>
					<path
   d="m 4.1,112.95 a 0.39995,0.39183 0 0 1 -0.366621,0.42448 L 0.4,113.37 A 0.39995,0.39183 0 0 1 5e-5,112.97817 L 0,110.5 a 0.39995,0.39183 0 0 1 0.366621,-0.42448 L 3.7,110.07 c 0.33,0 0.5,0.17 0.5,0.43 z"
   class="st3"
   id="path83"
   inkscape:connector-curvature="0"
   style="fill:#76bc2d;stroke:none;stroke-width:34;stroke-linecap:butt" />
				</g>
				<g
   id="shape14077-33"
   transform="translate(34.9956,-5.95566)">
					<title
   id="title86">Sheet.14077</title>
					<path
   d="m 4.33,112.93 a 0.366621,0.359178 0 0 1 -0.366621,0.42448 L 0.63,113.35 a 0.39995,0.39183 0 0 1 -0.633254,-0.42448 L 0,110.38 a 0.39995,0.39183 0 0 1 0.366621,-0.42448 L 3.7,109.95 a 0.433279,0.424483 0 0 1 0.499938,0.42448 z"
   class="st4"
   id="path88"
   inkscape:connector-curvature="0"
   style="fill:#5e9624;stroke:none;stroke-width:34;stroke-linecap:butt" />
				</g>
				<g
   id="shape14078-35"
   transform="translate(0,-9.24066)">
					<title
   id="title91">Sheet.14078</title>
					<path
   d="M 42.69,89.44 A 0.933217,0.91427 -180 0 0 41.6568,88.52573 L 15,88.52 a 0.933217,0.91427 -180 0 0 -0.966546,0.91427 L 14.03,94.43 a 0.499938,0.489788 -180 0 0 0.499938,0.457135 L 16.66,94.89 a 0.466608,0.457135 -180 0 0 0.466608,-0.457135 L 17.13,91.49 h 22.4 v 2.94 a 0.499938,0.489788 -180 0 0 0.499938,0.457135 L 42.19,94.89 a 0.499938,0.489788 -180 0 0 0.499938,-0.457135 z m -25.56,18.02 a 0.466608,0.457135 -180 0 0 -0.466608,-0.45714 L 14.5,107 a 0.499938,0.489788 -180 0 0 -0.499938,0.45713 L 14,112.46 a 0.833229,0.816313 -180 0 0 0.699913,0.91427 L 26.3,113.37 V 110.4 H 17.13 Z M 28.7,78.2 A 0.966546,0.946923 -180 0 0 27.733454,77.253077 L 1.07,77.26 A 0.966546,0.946923 -180 0 0 0.103454,78.206923 L 0.1,83.2 a 0.466608,0.457135 -180 0 0 0.366621,0.359178 L 2.67,83.56 A 0.466608,0.457135 -180 0 0 3.136608,83.102865 L 3.13,80.29 h 22.4 v 2.97 a 0.499938,0.489788 -180 0 0 0.499938,0.293873 L 28.33,83.56 a 0.499938,0.489788 -180 0 0 0.499938,-0.457135 L 28.83,78.2 Z M 3.13,96.23 A 0.499938,0.489788 -180 0 0 2.663392,95.740212 L 0.47,95.74 A 0.499938,0.489788 -180 0 0 0.003392,96.229788 L 0,101.19 c 0,0.49 0.33,0.91 0.7,0.91 H 12.3 V 99.17 H 3.13 Z"
   class="st6"
   id="path93"
   inkscape:connector-curvature="0"
   style="fill:#949494;stroke:none;stroke-width:34;stroke-linecap:butt" />
				</g>
				<g
   id="shape14079-37"
   transform="translate(6.19923,-14.5957)">
					<title
   id="title96">Sheet.14079</title>
					<path
   d="m 18.2,103.02 a 0.366621,0.359178 0 0 1 -0.366621,0.39183 L 14.5,103.41 a 0.366621,0.359178 0 0 1 -0.433279,-0.35918 L 14.06,100.54 a 0.366621,0.359178 0 0 1 0.366621,-0.42448 L 17.76,100.11 c 0.34,0 0.5,0.17 0.5,0.43 z m 0,2.48 c 0,-0.26 -0.17,-0.26 -0.5,-0.26 h -3.34 a 0.39995,0.39183 -180 0 0 -0.366621,0.42448 L 14,108.21 a 0.39995,0.39183 -180 0 0 0.433279,0.35918 L 17.76,108.57 a 0.39995,0.39183 -180 0 0 0.366621,-0.42448 z m 0,4.96 c 0,-0.22 -0.17,-0.39 -0.5,-0.39 h -3.34 a 0.366621,0.359178 -180 0 0 -0.366621,0.39183 L 14,113.01 a 0.366621,0.359178 -180 0 0 0.433279,0.35918 L 17.76,113.37 a 0.366621,0.359178 -180 0 0 0.366621,-0.42448 z M 4.2,89.27 A 0.433279,0.424483 -180 0 0 3.700062,88.910822 L 0.37,88.91 A 0.39995,0.39183 -180 0 0 0.003379,89.334483 L 0,91.88 a 0.39995,0.39183 -180 0 0 0.366621,0.293873 L 3.7,92.18 a 0.366621,0.359178 -180 0 0 0.366621,-0.424483 z m 0,4.97 c 0,-0.23 -0.17,-0.4 -0.5,-0.4 H 0.37 A 0.366621,0.359178 -180 0 0 0.003379,94.23183 L 0,96.75 a 0.366621,0.359178 -180 0 0 0.39995,0.359178 L 3.73,97.11 a 0.366621,0.359178 -180 0 0 0.366621,-0.39183 z m 0,4.99 C 4.2,98.97 4.03,98.81 3.7,98.81 H 0.37 A 0.39995,0.39183 -180 0 0 0.003379,99.234483 L 0,101.71 a 0.39995,0.39183 -180 0 0 0.39995,0.39183 L 3.73,102.1 a 0.39995,0.39183 -180 0 0 0.366621,-0.42448 z"
   class="st3"
   id="path98"
   inkscape:connector-curvature="0"
   style="fill:#76bc2d;stroke:none;stroke-width:34;stroke-linecap:butt" />
				</g>
			</g>
		</g>
	</g>
</svg>

<?xml version="1.0" encoding="UTF-8" standalone="no"?>
<!DOCTYPE svg PUBLIC "-//W3C//DTD SVG 1.1//EN" "http://www.w3.org/Graphics/SVG/1.1/DTD/svg11.dtd">
<!-- Generated by Microsoft Visio, SVG Export Event Hub Cluster.svg Page-1 -->
<svg xmlns="http://www.w3.org/2000/svg" xmlns:xlink="http://www.w3.org/1999/xlink" xmlns:ev="http://www.w3.org/2001/xml-events"
		width="1.73185in" height="1.57458in" viewBox="0 0 124.693 113.37" xml:space="preserve" color-interpolation-filters="sRGB"
		class="st7">
	<style type="text/css">
	<![CDATA[
		.st1 {fill:#b3b3b3;stroke:none;stroke-linecap:butt;stroke-width:34}
		.st2 {fill:#b3b3b3;fill-opacity:0.5;stroke:none;stroke-linecap:butt;stroke-width:34}
		.st3 {fill:#76bc2d;stroke:none;stroke-linecap:butt;stroke-width:34}
		.st4 {fill:#5e9624;stroke:none;stroke-linecap:butt;stroke-width:34}
		.st5 {fill:#86d633;stroke:none;stroke-linecap:butt;stroke-width:34}
		.st6 {fill:#949494;stroke:none;stroke-linecap:butt;stroke-width:34}
		.st7 {fill:none;fill-rule:evenodd;font-size:12px;overflow:visible;stroke-linecap:square;stroke-miterlimit:3}
	]]>
	</style>

	<g>
		<title>Page-1</title>
		<g id="group13712-1" transform="translate(34,-34.0157)">
			<title>Event Hub Cluster.13712</title>
			<g id="group13713-2">
				<title> Icon-analytics-149</title>
				<g id="group13714-3" transform="translate(27.8632,-18.8078)">
					<title>Sheet.13714</title>
					<g id="shape13715-4" transform="translate(-2.89768E-14,-0.0326525)">
						<title>Sheet.13715</title>
						<path d="M1.07 107 L3.23 107 L3.23 112.91 a0.466608 0.457135 0 0 1 -0.466608 0.457135 L0.47 113.37 a0.466608
									 0.457135 0 0 1 -0.466608 -0.457135 L0 107.95 a0.966546 0.946923 0 0 1 1.06653 -0.946923 Z"
								class="st1"/>
					</g>
					<g id="shape13716-6" transform="translate(-2.89768E-14,-0.0326525)">
						<title>Sheet.13716</title>
						<path d="M1.07 107 L3.23 107 L3.23 112.91 a0.466608 0.457135 0 0 1 -0.466608 0.457135 L0.47 113.37 a0.466608
									 0.457135 0 0 1 -0.466608 -0.457135 L0 107.95 a0.966546 0.946923 0 0 1 1.06653 -0.946923 Z"
								class="st2"/>
					</g>
					<g id="shape13717-8" transform="translate(25.6635,0)">
						<title>Sheet.13717</title>
						<path d="M0 106.97 L2.17 106.97 a0.966546 0.946923 0 0 1 0.966546 0.946923 L3.13 112.91 a0.466608 0.457135
									 0 0 1 -0.466608 0.457135 L0.47 113.37 a0.466608 0.457135 0 0 1 -0.466608 -0.457135 L0 106.97
									 Z" class="st1"/>
					</g>
					<g id="shape13718-10" transform="translate(25.6635,0)">
						<title>Sheet.13718</title>
						<path d="M0 106.97 L2.17 106.97 a0.966546 0.946923 0 0 1 0.966546 0.946923 L3.13 112.91 a0.466608 0.457135
									 0 0 1 -0.466608 0.457135 L0.47 113.37 a0.466608 0.457135 0 0 1 -0.466608 -0.457135 L0 106.97
									 Z" class="st2"/>
					</g>
					<g id="shape13719-12" transform="translate(0.133317,-3.49382)">
						<title>Sheet.13719</title>
						<path d="M28.66 111.31 L28.66 113.37 L0 113.37 L0 111.31 a0.966546 0.946923 0 0 1 0.966546 -0.946923 L27.63
									 110.37 a0.966546 0.946923 0 0 1 1.0332 0.946923 Z" class="st1"/>
					</g>
				</g>
				<g id="group13720-14" transform="translate(27.9632,9.9476E-14)">
					<title>Sheet.13720</title>
					<g id="shape13721-15" transform="translate(5.77038E-14,-0.0326525)">
						<title>Sheet.13721</title>
						<path d="M0.37 107 L2.53 107 a0.466608 0.457135 0 0 1 0.466608 0.457135 L3 113.37 L0.97 113.37 a0.966546
									 0.946923 0 0 1 -0.966546 -0.946923 L0 107.36 a0.466608 0.457135 0 0 1 0.366621 -0.359178 Z"
								class="st1"/>
					</g>
					<g id="shape13722-17" transform="translate(5.77038E-14,-0.0326525)">
						<title>Sheet.13722</title>
						<path d="M0.37 107 L2.53 107 a0.466608 0.457135 0 0 1 0.466608 0.457135 L3 113.37 L0.97 113.37 a0.966546
									 0.946923 0 0 1 -0.966546 -0.946923 L0 107.36 a0.466608 0.457135 0 0 1 0.366621 -0.359178 Z"
								class="st2"/>
					</g>
					<g id="shape13723-19" transform="translate(25.5301,0)">
						<title>Sheet.13723</title>
						<path d="M0.5 106.97 L2.67 106.97 a0.466608 0.457135 0 0 1 0.466608 0.457135 L3.13 112.42 a0.966546 0.946923
									 0 0 1 -0.966546 0.946923 L0 113.37 L0 107.33 a0.466608 0.457135 0 0 1 0.499938 -0.359178 Z"
								class="st1"/>
					</g>
					<g id="shape13724-21" transform="translate(25.5301,0)">
						<title>Sheet.13724</title>
						<path d="M0.5 106.97 L2.67 106.97 a0.466608 0.457135 0 0 1 0.466608 0.457135 L3.13 112.42 a0.966546 0.946923
									 0 0 1 -0.966546 0.946923 L0 113.37 L0 107.33 a0.466608 0.457135 0 0 1 0.499938 -0.359178 Z"
								class="st2"/>
					</g>
					<g id="shape13725-23" transform="translate(0.0333292,0)">
						<title>Sheet.13725</title>
						<path d="M0 112.42 L0 110.37 L28.7 110.37 L28.7 112.42 a0.966546 0.946923 0 0 1 -0.966546 0.946923 L1.07
									 113.37 a0.966546 0.946923 0 0 1 -1.06653 -0.946923 Z" class="st1"/>
					</g>
				</g>
				<g id="shape13726-25" transform="translate(41.2282,-13.3549)">
					<title>Sheet.13726</title>
					<path d="M4.07 112.95 a0.433279 0.424483 0 0 1 -0.366621 0.424483 L0.43 113.37 a0.39995 0.39183 0 0 1 -0.433279
								 -0.39183 L0 110.53 a0.466608 0.457135 0 0 1 0.366621 -0.424483 L3.7 110.1 a0.39995 0.39183 0 0 1
								 0.433279 0.39183 L4.07 112.95 Z" class="st3"/>
				</g>
				<g id="shape13727-27" transform="translate(41.2282,-8.39169)">
					<title>Sheet.13727</title>
					<path d="M10.03 110.46 a0.433279 0.424483 0 0 1 -0.366621 0.424483 L6.33 110.89 a0.39995 0.39183 0 0 1 -0.433279
								 -0.39183 L5.9 108.08 a0.366621 0.359178 0 0 1 0.366621 -0.39183 L9.6 107.69 a0.366621 0.359178 0
								 0 1 0.433279 0.359178 L10.03 110.46 ZM4.07 112.95 a0.39995 0.39183 0 0 1 -0.366621 0.424483 L0.43
								 113.37 a0.39995 0.39183 0 0 1 -0.433279 -0.359178 L0 110.56 a0.39995 0.39183 0 0 1 0.433279 -0.424483
								 L3.77 110.14 a0.366621 0.359178 0 0 1 0.433279 0.359178 L4.2 112.95 L4.07 112.95 Z" class="st4"/>
				</g>
				<g id="shape13728-29" transform="translate(34.9956,-15.6895)">
					<title>Sheet.13728</title>
					<path d="M4.33 112.86 a0.366621 0.359178 0 0 1 -0.366621 0.39183 L0.63 113.26 a0.37449 0.366887 0 0 1 -0.633254
								 -0.39183 L0 110.35 a0.366621 0.359178 0 0 1 0.366621 -0.39183 L3.7 109.96 C4.03 109.96 4.2 110.12
								 4.2 110.35 L4.33 112.86 Z" class="st5"/>
				</g>
				<g id="shape13729-31" transform="translate(35.2289,-10.8733)">
					<title>Sheet.13729</title>
					<path d="M4.1 112.95 a0.39995 0.39183 0 0 1 -0.366621 0.424483 L0.4 113.37 a0.39995 0.39183 0 0 1 -0.39995 -0.39183
								 L0 110.5 a0.39995 0.39183 0 0 1 0.366621 -0.424483 L3.7 110.07 C4.03 110.07 4.2 110.24 4.2 110.5
								 L4.1 112.95 Z" class="st3"/>
				</g>
				<g id="shape13730-33" transform="translate(34.9956,-5.95566)">
					<title>Sheet.13730</title>
					<path d="M4.33 112.93 a0.366621 0.359178 0 0 1 -0.366621 0.424483 L0.63 113.35 a0.39995 0.39183 0 0 1 -0.633254
								 -0.424483 L0 110.38 a0.39995 0.39183 0 0 1 0.366621 -0.424483 L3.7 109.95 a0.433279 0.424483 0 0
								 1 0.499938 0.424483 L4.33 112.93 Z" class="st4"/>
				</g>
				<g id="shape13731-35" transform="translate(-2.79776E-13,-9.24066)">
					<title>Sheet.13731</title>
					<path d="M42.69 89.44 a0.933217 0.91427 -180 0 0 -1.0332 -0.91427 L15 88.52 a0.933217 0.91427 -180 0 0 -0.966546
								 0.91427 L14.03 94.43 a0.499938 0.489788 -180 0 0 0.499938 0.457135 L16.66 94.89 a0.466608 0.457135
								 -180 0 0 0.466608 -0.457135 L17.13 91.49 L39.53 91.49 L39.53 94.43 a0.499938 0.489788 -180 0 0 0.499938
								 0.457135 L42.19 94.89 a0.499938 0.489788 -180 0 0 0.499938 -0.457135 L42.69 89.44 ZM17.13 107.46
								 a0.466608 0.457135 -180 0 0 -0.466608 -0.457135 L14.5 107 a0.499938 0.489788 -180 0 0 -0.499938
								 0.457135 L14 112.46 a0.833229 0.816313 -180 0 0 0.699913 0.91427 L26.3 113.37 L26.3 110.4 L17.13
								 110.4 L17.13 107.46 ZM28.7 78.2 a0.966546 0.946923 -180 0 0 -0.966546 -0.946923 L1.07 77.26 a0.966546
								 0.946923 -180 0 0 -0.966546 0.946923 L0.1 83.2 a0.466608 0.457135 -180 0 0 0.366621 0.359178 L2.67
								 83.56 a0.466608 0.457135 -180 0 0 0.466608 -0.457135 L3.13 80.29 L25.53 80.29 L25.53 83.26 a0.499938
								 0.489788 -180 0 0 0.499938 0.293873 L28.33 83.56 a0.499938 0.489788 -180 0 0 0.499938 -0.457135
								 L28.83 78.2 L28.7 78.2 ZM3.13 96.23 a0.499938 0.489788 -180 0 0 -0.466608 -0.489788 L0.47 95.74
								 a0.499938 0.489788 -180 0 0 -0.466608 0.489788 L0 101.19 C0 101.68 0.33 102.1 0.7 102.1 L12.3 102.1
								 L12.3 99.17 L3.13 99.17 L3.13 96.23 Z" class="st6"/>
				</g>
				<g id="shape13732-37" transform="translate(6.19923,-14.5957)">
					<title>Sheet.13732</title>
					<path d="M18.2 103.02 a0.366621 0.359178 0 0 1 -0.366621 0.39183 L14.5 103.41 a0.366621 0.359178 0 0 1 -0.433279
								 -0.359178 L14.06 100.54 a0.366621 0.359178 0 0 1 0.366621 -0.424483 L17.76 100.11 C18.1 100.11 18.26
								 100.28 18.26 100.54 L18.2 103.02 ZM18.2 105.5 C18.2 105.24 18.03 105.24 17.7 105.24 L14.36 105.24
								 a0.39995 0.39183 -180 0 0 -0.366621 0.424483 L14 108.21 a0.39995 0.39183 -180 0 0 0.433279 0.359178
								 L17.76 108.57 a0.39995 0.39183 -180 0 0 0.366621 -0.424483 L18.2 105.5 ZM18.2 110.46 C18.2 110.24
								 18.03 110.07 17.7 110.07 L14.36 110.07 a0.366621 0.359178 -180 0 0 -0.366621 0.39183 L14 113.01
								 a0.366621 0.359178 -180 0 0 0.433279 0.359178 L17.76 113.37 a0.366621 0.359178 -180 0 0 0.366621
								 -0.424483 L18.2 110.46 ZM4.2 89.27 a0.433279 0.424483 -180 0 0 -0.499938 -0.359178 L0.37 88.91 a0.39995
								 0.39183 -180 0 0 -0.366621 0.424483 L0 91.88 a0.39995 0.39183 -180 0 0 0.366621 0.293873 L3.7 92.18
								 a0.366621 0.359178 -180 0 0 0.366621 -0.424483 L4.2 89.27 ZM4.2 94.24 C4.2 94.01 4.03 93.84 3.7
								 93.84 L0.37 93.84 a0.366621 0.359178 -180 0 0 -0.366621 0.39183 L0 96.75 a0.366621 0.359178 -180
								 0 0 0.39995 0.359178 L3.73 97.11 a0.366621 0.359178 -180 0 0 0.366621 -0.39183 L4.2 94.24 ZM4.2
								 99.23 C4.2 98.97 4.03 98.81 3.7 98.81 L0.37 98.81 a0.39995 0.39183 -180 0 0 -0.366621 0.424483 L0
								 101.71 a0.39995 0.39183 -180 0 0 0.39995 0.39183 L3.73 102.1 a0.39995 0.39183 -180 0 0 0.366621
								 -0.424483 L4.2 99.23 Z" class="st3"/>
				</g>
			</g>
		</g>
	</g>
</svg>
